!!!COM: Hummel, Johann Nepomuk
!!!CDT: 1778/11/14-1837/10/17
!!!OTL: Prelude in B minor, op. 67, no. 6
!!!OPS: 67
!!!ONM: 6
!!!OMD: Allegro non troppo.
!!!ODT: 1815
!!!AIN: piano
**kern	**kern	**dynam
*staff2	*staff1	*staff1/2
*Ipiano	*Ipiano	*Ipiano
*clefF4	*clefG2	*
*k[f#c#]	*k[f#c#]	*
*b:	*b:	*
*met(c)	*met(c)	*
*M4/4	*M4/4	*
*MM110	*MM110	*
=1-	=1-	=1-
*	*clefF4	*
*	*^	*
!	!	!	!LO:DY:b=2
2BBB: 2BB:	16r	16r	p
!	!	!	!LO:DY:t=%s sempre legato
.	8.d	(>16dLL	p
.	.	16A#	.
.	.	16BJJ	.
.	16r	4D	.
.	16F#LL	.	.
.	16B	.	.
.	16dJJ	.	.
2C#	16r	16r	.
.	8.e	16eLL	.
.	.	16B	.
.	.	16A#JJ	.
.	16r	4c#	.
.	16ELL	.	.
.	16G	.	.
.	16A#JJ)	.	.
=2	=2	=2	=2
*^	*	*	*
2D#:	1BB:	16r	16r	.
.	.	8.f#	(>16f#LL	.
.	.	.	16B	.
.	.	.	16AnJJ	.
.	.	16r	4cn	.
.	.	16F#LL	.	.
.	.	16A	.	.
.	.	16cJJ	.	.
*	*	*v	*v	*
*	*	*clefG2	*clefG2
*	*	*^	*
2E	.	16r	16r	.
.	.	8.g	16gLL	.
.	.	.	16d#	.
.	.	.	16eJJ	.
.	.	16r	4G	.
.	.	16BLL	.	.
.	.	16e	.	.
.	.	16gJJ)	.	.
!!LO:LB:g=z
=3	=3	=3	=3	=3
2F#:	1BB:	16r	16r	.
.	.	8.a#	(>16a#LL	<
.	.	.	16c#	.
.	.	.	16eJJ	.
.	.	16r	4A#	.
.	.	16c#LL	.	.
.	.	16e	.	.
.	.	16a#JJ	.	.
2G#	.	16r	16r	.
.	.	8.b	16bLL	.
.	.	.	16dn	.
.	.	.	16e#JJ	.
.	.	16r	4B	.
.	.	16dLL	.	.
.	.	16e#	.	.
.	.	16bJJ)	.	.
=4	=4	=4	=4	=4
2A#:	[2BB:	16r	16r	.
.	.	8.cc#	(16cc#LL	.
.	.	.	16en	.
.	.	.	16gnJJ	.
.	.	16r	4c#	.
.	.	16eLL	.	.
.	.	16f#	.	.
.	.	16cc#JJ	.	.
(2B	4BB]	16r	16r	.
.	.	8.dd	16ddLL	f
.	.	.	16f#	.
.	.	.	16bJJ	.
.	(4E#	16r	4d	.
.	.	16g#LL	.	.
.	.	16b	.	.
.	.	16ddJJ)	.	.
!!LO:LB:g=z
=5	=5	=5	=5	=5
4A#)	4F#)	16r	16r	.
.	.	8.cc#	(>16cc#LL	>
.	.	.	16f#	.
.	.	.	16a#JJ	.
(4An	(4D#	16r	4cn	.
.	.	16f#LL	.	.
.	.	16an	.	.
.	.	16ccnJJ	.	.
4G#)	4En)	16r	16r	.
.	.	8.b	16bLL	.
.	.	.	16e	.
.	.	.	16g#JJ	.
(4Gn	(4C#X	16r	4A#	.
.	.	16eLL	.	.
.	.	16gn	.	.
.	.	16a#JJ)	.	.
=6	=6	=6	=6	=6
4F#)	4Dn)	16r	16r	.
.	.	(8.b	16bLL	.
.	.	.	16f#	.
.	.	.	N[>16BJJ	p
*^	*	*	*	*
!!LO:TX:a:i:t=ritard
[2E/	4Cn/	4EE\	16BLLN]	16r	.
.	.	.	16cn	8.cn	.
.	.	.	16e	.	.
.	.	.	[16gJJ	.	.
.	4BB/	4GG\	16gLL]	16r	.
.	.	.	16e	8.e	.
.	.	.	16c#	.	.
.	.	.	[16BJJ	.	.
*MM100	*MM100	*MM100	*MM100	*MM100	*MM100
4E]	4C#/	4FF#\	16BLL]	16r	.
.	.	.	16A#	8.A#	.
.	.	.	16c#	.	.
.	.	.	16f#JJ)	.	.
*v	*v	*	*	*	*
*	*	*v	*v	*
=7	=7	=7	=7
*MM80	*MM80	*MM80	*MM80
8r	2BBB	4r	.
(16DDLL	.	.	.
16FF#JJ	.	.	.
*	*	*clefF4	*clefF4
4BB)	.	N(>32r	.
.	.	32DLLL	.
.	.	32F#	.
.	.	32B	.
.	.	32d	.
.	.	32B	.
.	.	32F#	.
.	.	32DJJJ	.
2r	2BBBN)	2r	.
*v	*v	*	*
==	==	==
*-	*-	*-
!!!RDF**kern: > = above
!!!RDF**kern: < = below
!!!RDF**kern: N = link
!!!ENC: Craig Stuart Sapp
!!!END: 2008/06/14
!!!EED: Craig Stuart Sapp
!!!EEV: 2021/01/08
!!!YEC: Copyright 2008 by Craig Stuart Sapp
!!!YEN: United States of America
